X:1
T:Hark! the Herald Angels Sing
T:Hark! the Herald Angels Sing
T:Piano/Bass lead sheet
C:arr. Pentatonix
%%score ( 1 2 )
L:1/8
M:4/4
K:Bb
V:1 treble nm="Soprano" snm="S"
V:2 treble 
V:1
"Cm7/F""^Piano slow intro" cdef-"Bbmaj7/F" fBcd- |"Ebmaj7/F" dABc-"Cm7/F" cAGF- | %2
"Bbmaj7/F" FGAB-"Ebmaj7/F" BEFG- |"Cm7/F" GCDE-"Ebm/F" E4 | %4
"Cm7/F""^Slow piano + sax" F2 B2"Fsus4" B2-"F7" BA |"B6" B2"B6/F" d2"C/E" d2"Eb6" c2 | %6
"Dm7" f2"Db7" f2"Cm7" f2-"Cm7b5" f"C"e |"Ebmaj7" d2"F7b9" c2"Bmaj7" d4 | %8
"Cm7" F2 B2"Fsus4" B2-"F7" BA |"Gm" B2-"Em7b5" (3Bcd"Gm7/A" f2"A7b9" =e2 |"Dm7" f2 c2"Gm7" c2- cB | %11
"C7b9" A2 G2"F7" c4 |"Bbmaj7/F""^Piano + sax + bass" f2 f2 f2 B2 |"Cm7/F" e2 d2"F7b9" d2 c2 | %14
"Bbmaj7/F" f2 f2 f2 B2 |"Fm7" g2- (3gfe"Bb7" d2 c2 |"Ebmaj7""Eb7" g3 g"Dm7b5" g2 f2 | %17
"G7b9" e2 d2"Cm7" e4 |"F" c2"F/Eb" de"Dm7" f2-"Gm7" fB |"Cm7" B2"F7b9" c2"Bbmaj7" d2-"Bb7" d2 | %20
"Ebmaj7""Eb7" g3 g"Dm7b5" g2 (3c2 d/c/ |"G7b9" =B2 f2"Cm7" e4 | %22
"F7""^Piano intro" c2 z e"Bbmaj7/F" f3 B |"Eb/F" B2"F7b9" z6"Bb9" || %24
"Cm7/F""^Medium swing\nSax intro: start drums here\n" cdef-"Bbmaj7/F" fBcd- | %25
"Ebmaj7/F" dABc-"Cm7/F" cAGF- |"Bbmaj7/F" FGAB-"Ebmaj7/F" BEFG- |"Cm7/F" GABc-"Ebm/F" c4 |: %28
"Cm7/F""C""^Sax""^Main section: tune + impro" F2 B2"Fsus4" B2-"F7" BA |"Bb6" B2 d2"F7b9" d2 c2 | %30
"Dm7" f2 f2"G7b9" f2- f"C"e |"Cm7" d2"F7b9" c2"Bmaj7" d4 |"Cm7" F2 B2"Fsus4" B2-"F7" BA | %33
"Bb6" B2 d2"F7b7" d2 c2 |"Dm7" f2 c2"Gm7" c2- cB |"C7b9" A2 G2"F7" F4 |"Bbmaj7/F" f2 f2 f2 B2 | %37
"Cm7/F" e2 d2"F7b9" d2 c2 |"Bbmaj7/F" f2 f2 f2 B2 |"Fm7" e2 d2"Bb7" d2 c2 | %40
"Ebmaj7" g"Eb7" g2 g-"Dm7b5" g2 f2 |"G7b9" e2 d2"Cm7" e4 |"F" cdef-"Dm7" f2-"Gm7" fB | %43
"Cm7" B2"Fm7" c2"Bb7" d4 |"Ebmaj7" g"Eb7" g2 g-"Dm6" g2 f2 |"G7b9" e2 d2"Cm7" e4 | %46
"Cm7b5" c2 de"Bbmaj7/F" f2- fB |"Eb/F" B2"F7b9" c2"Bb6" B4 |1"Cm7/F" cdef-"Bbmaj7/F" fBcd- || %49
"Ebmaj7/F" dABc-"Cm7/F" cAGF- |"Bbmaj7/F" FGAB-"Ebmaj7/F" BEFG- | %51
"Cm7/F" GABc-"Ebm/F""^Repeat for solos" c4 :| %52
"Cm7/F""C""^Sax intro to piano coda: slow down" cdef-"Bbmaj7/F" fBcd- |"Ebmaj7/F" dABc- cGAF- | %54
"Bbmaj7/F" FGAB-"Ebmaj7" BEFG- |"Am7b5" GABc-"Cm7/D""^Repeat for solos" c2-"D7b9" c2 || %56
[K:G]"Am7/D""^Piano coda" D2 G2"Dsus4" G2-"D7" GF |"G6" G2"G6/D" B2"A/C#" B2"C6" A2 | %58
"Bm7" d2"Bb7" d2"Am7" d2-"Am7b5" d"C"c |"Cmaj7" B2"D7b9" A2"Gmaj7" B4 | %60
"Am7" D2 G2"Dsus4" G2-"D7" GF |"Em" G2-"C#m7b5" (3GAB"Em7/F#" d2"F#7b9" ^c2 | %62
"Bm7" d2 A2"Em7" A2- AG |"A7b9" F2 E2"D7" A4 |"Gmaj7/D" d2 d2 d2"G6/D" G2 | %65
"Cm6/D" c2 B2"D7b9" B2 A2 |"Gmaj7/D" d2 d2 d2 G2 |"Dm7" e2- (3edc"G7" B2 A2 | %68
"Cmaj7""C7" e3 e"Bm7b5" e2 d2 |"E7b9" c2 B2"Am7" c4 |"D" A2"D/C" Bc"Bm7" d2-"Em7" dG | %71
"Am7" G2"D7b9" A2"Gmaj7" B2-"G7" B2 |"Cmaj7""C7" e3 e"Bm7b5" e2 (3A2 B/A/ |"E7b9" ^G2 d2"Am7" c4 | %74
"D7""^Piano intro" A2 Bc"Gmaj7/D" d3 G |"C/D" abc'd'- d'gab- |"D7b9" bfga- afed- | %77
"Cmaj7" defg- gcde- |"Am7/D" eABc-"Cm6/D" cGAB- | B8 |] %80
V:2
 x8 | x8 | x8 | x8 | x8 | x8 | x8 | x8 | x8 | x8 | x8 | x8 | x8 | x8 | x8 | x8 | x8 | x8 | x8 | %19
 x8 | x8 | x8 | x8 | x8 || x8 | x8 | x8 | x8 |: x8 | x8 | x8 | x8 | x8 | x8 | x8 | x8 | x8 | x8 | %38
 x8 | x8 | x8 | x8 | x8 | x8 | x8 | x8 | x8 | x8 |1 x8 || x8 | x8 | x8 :| x8 | x8 | x8 | x8 || %56
[K:G] x8 | x8 | x8 | x8 | x8 | x8 | x8 | x8 | x8 | x8 | x8 | x8 | x8 | x8 | x8 | x8 | x8 | x8 | %74
 x8 | G8 | A8 | G8 | x8 | x8 |] %80

